X:1
T: The Isle of Skye
C:
R:Strathspey
Q: 128
K:D
M:4/4
L:1/16
|:d2B2|A4 D4 G2F2 E2D2|A4 D4 G2F2 E2D2|B4 E4 E2F2 G2A2|B4 E4 E2F2 G2B2|
A4 G2F2 d4 c2B2|A4 G2F2 E4 D2E2|F2E2 D2B,2 A,2B,2 D2E2|1F4 D4 D4 d2B2:|2F4 D4 D4 a2g2|
f4 d4 f2g2 a2g2|f4 d4 f2g2|a2f2|g4 e4 e2f2 g2a2|b4 e4 e4 a2g2|
f4 d4 f2g2 a2g2|f4 d4 f2g2 a2g2|f2g2 a2b2 a2f2 e2g2|f4 d4 d4 d2e2|
f4 d2f2 e4 B2e2|d4 A2d2 B4 F2A2|B2E2 d2E2 E2F2 G2A2|B2E2 d2E2 E2c2 d2e2|
f4 d2f2 e4 B2e2|d4 A2d2 B4 F2B2|A4 A,4 A,2B,2 D2E2|F4 D4 D4||
